X: 205
T:The moving cloud
R:Reel
S:ricke~11.abc ?
Z:Transcription:?, Chords:Mike Long
M:C|
L:1/8
K:F
FD |:\
 "F"CFAF "C#"^CFAF | "F"CFAF "Dm"GFDF |\
"Bb"GB~B2 "F"Acfa | "C"gfdc "Bb"AGFD |\
"F"CFAF "C#"^CFAF |"F"CFAF "Dm"GFDF |
"Gm"GABc "Bb"dgfd |[1 "C"cAGA "F"FGFD :|[2 "C"cAGA "F"FGAB \
|:"F"c2fc acfc | ~c2 ac gcfc |\
 "Gm"d2 gd bdad |
"Bb"~d2bg "C"agfd |"F"c2fc acfc |~c2ac gcfa |\
 "Gm"bagf "Bb"agfd |[1 "C"cAGA "F"FGAB :|[2 "C"cAGA "F"F2|]

